content/blogs/regnskap/hva-er-kasseoppgjor/kasseoppgjor-utfordringer.svg

<svg xmlns="http://www.w3.org/2000/svg" width="800" height="600"><defs><linearGradient id="a" x1="0%" x2="100%" y1="0%" y2="100%"><stop offset="0%" style="stop-color:#f8f9fa;stop-opacity:1"/><stop offset="100%" style="stop-color:#e9ecef;stop-opacity:1"/></linearGradient><linearGradient id="b" x1="0%" x2="100%" y1="0%" y2="100%"><stop offset="0%" style="stop-color:#e74c3c;stop-opacity:1"/><stop offset="100%" style="stop-color:#c0392b;stop-opacity:1"/></linearGradient><linearGradient id="c" x1="0%" x2="100%" y1="0%" y2="100%"><stop offset="0%" style="stop-color:#27ae60;stop-opacity:1"/><stop offset="100%" style="stop-color:#229954;stop-opacity:1"/></linearGradient></defs><path fill="url(#a)" stroke="#dee2e6" stroke-width="2" d="M0 0h800v600H0z"/><text x="400" y="30" fill="#2c3e50" font-family="Arial, sans-serif" font-size="24" font-weight="bold" text-anchor="middle">
    Vanlige Kasseoppgjør Utfordringer og Løsninger
  </text><rect width="700" height="150" x="50" y="70" fill="#ecf0f1" stroke="#bdc3c7" stroke-width="2" rx="10"/><circle cx="120" cy="120" r="25" fill="url(#b)" stroke="#c0392b" stroke-width="2"/><text x="120" y="130" fill="#fff" font-family="Arial, sans-serif" font-size="20" font-weight="bold" text-anchor="middle">!</text><text x="170" y="100" fill="#e74c3c" font-family="Arial, sans-serif" font-size="16" font-weight="bold">
    UTFORDRING 1: HYPPIGE AVVIK
  </text><text x="170" y="120" fill="#2c3e50" font-family="Arial, sans-serif" font-size="12">
    Problem: Daglige små avvik som akkumuleres over tid
  </text><text x="170" y="140" fill="#7f8c8d" font-family="Arial, sans-serif" font-size="12">
    Konsekvenser: Tap av tid, redusert tillit til systemet, potensielt svinn
  </text><path fill="none" stroke="#f39c12" stroke-width="3" d="M400 145h40l-10-10m10 10-10 10"/><circle cx="500" cy="120" r="25" fill="url(#c)" stroke="#229954" stroke-width="2"/><text x="500" y="130" fill="#fff" font-family="Arial, sans-serif" font-size="20" font-weight="bold" text-anchor="middle">✓</text><text x="550" y="100" fill="#27ae60" font-family="Arial, sans-serif" font-size="16" font-weight="bold">
    LØSNINGER:
  </text><text x="550" y="120" fill="#2c3e50" font-family="Arial, sans-serif" font-size="11">• Implementer strengere kontrollrutiner</text><text x="550" y="135" fill="#2c3e50" font-family="Arial, sans-serif" font-size="11">• Øk frekvensen på kassetellinger</text><text x="550" y="150" fill="#2c3e50" font-family="Arial, sans-serif" font-size="11">• Forbedre opplæring av kassepersonale</text><text x="550" y="165" fill="#2c3e50" font-family="Arial, sans-serif" font-size="11">• Vurder oppgradering av kassesystem</text><text x="550" y="180" fill="#2c3e50" font-family="Arial, sans-serif" font-size="11">• Implementer automatisk avviksdeteksjon</text><rect width="700" height="150" x="50" y="240" fill="#ecf0f1" stroke="#bdc3c7" stroke-width="2" rx="10"/><circle cx="120" cy="290" r="25" fill="url(#b)" stroke="#c0392b" stroke-width="2"/><text x="120" y="300" fill="#fff" font-family="Arial, sans-serif" font-size="20" font-weight="bold" text-anchor="middle">⏰</text><text x="170" y="270" fill="#e74c3c" font-family="Arial, sans-serif" font-size="16" font-weight="bold">
    UTFORDRING 2: TIDKREVENDE PROSESSER
  </text><text x="170" y="290" fill="#2c3e50" font-family="Arial, sans-serif" font-size="12">
    Problem: Kasseoppgjør tar for lang tid og forsinker daglig drift
  </text><text x="170" y="310" fill="#7f8c8d" font-family="Arial, sans-serif" font-size="12">
    Konsekvenser: Overtid, forsinkelser, redusert produktivitet
  </text><path fill="none" stroke="#f39c12" stroke-width="3" d="M400 315h40l-10-10m10 10-10 10"/><circle cx="500" cy="290" r="25" fill="url(#c)" stroke="#229954" stroke-width="2"/><text x="500" y="300" fill="#fff" font-family="Arial, sans-serif" font-size="20" font-weight="bold" text-anchor="middle">⚡</text><text x="550" y="270" fill="#27ae60" font-family="Arial, sans-serif" font-size="16" font-weight="bold">
    LØSNINGER:
  </text><text x="550" y="290" fill="#2c3e50" font-family="Arial, sans-serif" font-size="11">• Automatiser rapportgenerering</text><text x="550" y="305" fill="#2c3e50" font-family="Arial, sans-serif" font-size="11">• Standardiser tellingsprosedyrer</text><text x="550" y="320" fill="#2c3e50" font-family="Arial, sans-serif" font-size="11">• Bruk digitale tellingsskjemaer</text><text x="550" y="335" fill="#2c3e50" font-family="Arial, sans-serif" font-size="11">• Implementer parallelle kontrollprosesser</text><text x="550" y="350" fill="#2c3e50" font-family="Arial, sans-serif" font-size="11">• Investér i raskere kassesystemer</text><rect width="700" height="150" x="50" y="410" fill="#ecf0f1" stroke="#bdc3c7" stroke-width="2" rx="10"/><circle cx="120" cy="460" r="25" fill="url(#b)" stroke="#c0392b" stroke-width="2"/><text x="120" y="470" fill="#fff" font-family="Arial, sans-serif" font-size="20" font-weight="bold" text-anchor="middle">📄</text><text x="170" y="440" fill="#e74c3c" font-family="Arial, sans-serif" font-size="16" font-weight="bold">
    UTFORDRING 3: MANGLENDE DOKUMENTASJON
  </text><text x="170" y="460" fill="#2c3e50" font-family="Arial, sans-serif" font-size="12">
    Problem: Utilstrekkelig dokumentasjon av kasseoppgjør og avvik
  </text><text x="170" y="480" fill="#7f8c8d" font-family="Arial, sans-serif" font-size="12">
    Konsekvenser: Revisjonsproblemer, manglende sporbarhet, compliance-risiko
  </text><path fill="none" stroke="#f39c12" stroke-width="3" d="M400 485h40l-10-10m10 10-10 10"/><circle cx="500" cy="460" r="25" fill="url(#c)" stroke="#229954" stroke-width="2"/><text x="500" y="470" fill="#fff" font-family="Arial, sans-serif" font-size="20" font-weight="bold" text-anchor="middle">📋</text><text x="550" y="440" fill="#27ae60" font-family="Arial, sans-serif" font-size="16" font-weight="bold">
    LØSNINGER:
  </text><text x="550" y="460" fill="#2c3e50" font-family="Arial, sans-serif" font-size="11">• Implementer digitale dokumentasjonssystemer</text><text x="550" y="475" fill="#2c3e50" font-family="Arial, sans-serif" font-size="11">• Lag standardiserte rapportmaler</text><text x="550" y="490" fill="#2c3e50" font-family="Arial, sans-serif" font-size="11">• Etabler klare arkiveringsrutiner</text><text x="550" y="505" fill="#2c3e50" font-family="Arial, sans-serif" font-size="11">• Sørg for regelmessig backup av data</text><text x="550" y="520" fill="#2c3e50" font-family="Arial, sans-serif" font-size="11">• Implementer automatisk dokumentgenerering</text><rect width="600" height="25" x="100" y="570" fill="#34495e" stroke="#2c3e50" rx="5"/><text x="400" y="587" fill="#fff" font-family="Arial, sans-serif" font-size="12" font-weight="bold" text-anchor="middle">
    SUKSESSFAKTORER: SYSTEMATISK TILNÆRMING + RIKTIG TEKNOLOGI + KOMPETENT PERSONALE
  </text></svg>

<svg width="800" height="600" xmlns="http://www.w3.org/2000/svg">
  <defs>
    <linearGradient id="bgGradient" x1="0%" y1="0%" x2="100%" y2="100%">
      <stop offset="0%" style="stop-color:#f8f9fa;stop-opacity:1" />
      <stop offset="100%" style="stop-color:#e9ecef;stop-opacity:1" />
    </linearGradient>
    <linearGradient id="challengeGradient" x1="0%" y1="0%" x2="100%" y2="100%">
      <stop offset="0%" style="stop-color:#e74c3c;stop-opacity:1" />
      <stop offset="100%" style="stop-color:#c0392b;stop-opacity:1" />
    </linearGradient>
    <linearGradient id="solutionGradient" x1="0%" y1="0%" x2="100%" y2="100%">
      <stop offset="0%" style="stop-color:#27ae60;stop-opacity:1" />
      <stop offset="100%" style="stop-color:#229954;stop-opacity:1" />
    </linearGradient>
  </defs>
  

  <rect width="800" height="600" fill="url(#bgGradient)" stroke="#dee2e6" stroke-width="2"/>
  

  <text x="400" y="30" font-family="Arial, sans-serif" font-size="24" font-weight="bold" text-anchor="middle" fill="#2c3e50">
    Vanlige Kasseoppgjør Utfordringer og Løsninger
  </text>
  

  <rect x="50" y="70" width="700" height="150" fill="#ecf0f1" stroke="#bdc3c7" stroke-width="2" rx="10"/>
  

  <circle cx="120" cy="120" r="25" fill="url(#challengeGradient)" stroke="#c0392b" stroke-width="2"/>
  <text x="120" y="130" font-family="Arial, sans-serif" font-size="20" font-weight="bold" text-anchor="middle" fill="white">!</text>
  
  <text x="170" y="100" font-family="Arial, sans-serif" font-size="16" font-weight="bold" fill="#e74c3c">
    UTFORDRING 1: HYPPIGE AVVIK
  </text>
  <text x="170" y="120" font-family="Arial, sans-serif" font-size="12" fill="#2c3e50">
    Problem: Daglige små avvik som akkumuleres over tid
  </text>
  <text x="170" y="140" font-family="Arial, sans-serif" font-size="12" fill="#7f8c8d">
    Konsekvenser: Tap av tid, redusert tillit til systemet, potensielt svinn
  </text>
  

  <path d="M 400 145 L 440 145 L 430 135 M 440 145 L 430 155" stroke="#f39c12" stroke-width="3" fill="none"/>
  

  <circle cx="500" cy="120" r="25" fill="url(#solutionGradient)" stroke="#229954" stroke-width="2"/>
  <text x="500" y="130" font-family="Arial, sans-serif" font-size="20" font-weight="bold" text-anchor="middle" fill="white">✓</text>
  
  <text x="550" y="100" font-family="Arial, sans-serif" font-size="16" font-weight="bold" fill="#27ae60">
    LØSNINGER:
  </text>
  <text x="550" y="120" font-family="Arial, sans-serif" font-size="11" fill="#2c3e50">• Implementer strengere kontrollrutiner</text>
  <text x="550" y="135" font-family="Arial, sans-serif" font-size="11" fill="#2c3e50">• Øk frekvensen på kassetellinger</text>
  <text x="550" y="150" font-family="Arial, sans-serif" font-size="11" fill="#2c3e50">• Forbedre opplæring av kassepersonale</text>
  <text x="550" y="165" font-family="Arial, sans-serif" font-size="11" fill="#2c3e50">• Vurder oppgradering av kassesystem</text>
  <text x="550" y="180" font-family="Arial, sans-serif" font-size="11" fill="#2c3e50">• Implementer automatisk avviksdeteksjon</text>
  

  <rect x="50" y="240" width="700" height="150" fill="#ecf0f1" stroke="#bdc3c7" stroke-width="2" rx="10"/>
  

  <circle cx="120" cy="290" r="25" fill="url(#challengeGradient)" stroke="#c0392b" stroke-width="2"/>
  <text x="120" y="300" font-family="Arial, sans-serif" font-size="20" font-weight="bold" text-anchor="middle" fill="white">⏰</text>
  
  <text x="170" y="270" font-family="Arial, sans-serif" font-size="16" font-weight="bold" fill="#e74c3c">
    UTFORDRING 2: TIDKREVENDE PROSESSER
  </text>
  <text x="170" y="290" font-family="Arial, sans-serif" font-size="12" fill="#2c3e50">
    Problem: Kasseoppgjør tar for lang tid og forsinker daglig drift
  </text>
  <text x="170" y="310" font-family="Arial, sans-serif" font-size="12" fill="#7f8c8d">
    Konsekvenser: Overtid, forsinkelser, redusert produktivitet
  </text>
  

  <path d="M 400 315 L 440 315 L 430 305 M 440 315 L 430 325" stroke="#f39c12" stroke-width="3" fill="none"/>
  

  <circle cx="500" cy="290" r="25" fill="url(#solutionGradient)" stroke="#229954" stroke-width="2"/>
  <text x="500" y="300" font-family="Arial, sans-serif" font-size="20" font-weight="bold" text-anchor="middle" fill="white">⚡</text>
  
  <text x="550" y="270" font-family="Arial, sans-serif" font-size="16" font-weight="bold" fill="#27ae60">
    LØSNINGER:
  </text>
  <text x="550" y="290" font-family="Arial, sans-serif" font-size="11" fill="#2c3e50">• Automatiser rapportgenerering</text>
  <text x="550" y="305" font-family="Arial, sans-serif" font-size="11" fill="#2c3e50">• Standardiser tellingsprosedyrer</text>
  <text x="550" y="320" font-family="Arial, sans-serif" font-size="11" fill="#2c3e50">• Bruk digitale tellingsskjemaer</text>
  <text x="550" y="335" font-family="Arial, sans-serif" font-size="11" fill="#2c3e50">• Implementer parallelle kontrollprosesser</text>
  <text x="550" y="350" font-family="Arial, sans-serif" font-size="11" fill="#2c3e50">• Investér i raskere kassesystemer</text>
  

  <rect x="50" y="410" width="700" height="150" fill="#ecf0f1" stroke="#bdc3c7" stroke-width="2" rx="10"/>
  

  <circle cx="120" cy="460" r="25" fill="url(#challengeGradient)" stroke="#c0392b" stroke-width="2"/>
  <text x="120" y="470" font-family="Arial, sans-serif" font-size="20" font-weight="bold" text-anchor="middle" fill="white">📄</text>
  
  <text x="170" y="440" font-family="Arial, sans-serif" font-size="16" font-weight="bold" fill="#e74c3c">
    UTFORDRING 3: MANGLENDE DOKUMENTASJON
  </text>
  <text x="170" y="460" font-family="Arial, sans-serif" font-size="12" fill="#2c3e50">
    Problem: Utilstrekkelig dokumentasjon av kasseoppgjør og avvik
  </text>
  <text x="170" y="480" font-family="Arial, sans-serif" font-size="12" fill="#7f8c8d">
    Konsekvenser: Revisjonsproblemer, manglende sporbarhet, compliance-risiko
  </text>
  

  <path d="M 400 485 L 440 485 L 430 475 M 440 485 L 430 495" stroke="#f39c12" stroke-width="3" fill="none"/>
  

  <circle cx="500" cy="460" r="25" fill="url(#solutionGradient)" stroke="#229954" stroke-width="2"/>
  <text x="500" y="470" font-family="Arial, sans-serif" font-size="20" font-weight="bold" text-anchor="middle" fill="white">📋</text>
  
  <text x="550" y="440" font-family="Arial, sans-serif" font-size="16" font-weight="bold" fill="#27ae60">
    LØSNINGER:
  </text>
  <text x="550" y="460" font-family="Arial, sans-serif" font-size="11" fill="#2c3e50">• Implementer digitale dokumentasjonssystemer</text>
  <text x="550" y="475" font-family="Arial, sans-serif" font-size="11" fill="#2c3e50">• Lag standardiserte rapportmaler</text>
  <text x="550" y="490" font-family="Arial, sans-serif" font-size="11" fill="#2c3e50">• Etabler klare arkiveringsrutiner</text>
  <text x="550" y="505" font-family="Arial, sans-serif" font-size="11" fill="#2c3e50">• Sørg for regelmessig backup av data</text>
  <text x="550" y="520" font-family="Arial, sans-serif" font-size="11" fill="#2c3e50">• Implementer automatisk dokumentgenerering</text>
  

  <rect x="100" y="570" width="600" height="25" fill="#34495e" stroke="#2c3e50" stroke-width="1" rx="5"/>
  <text x="400" y="587" font-family="Arial, sans-serif" font-size="12" font-weight="bold" text-anchor="middle" fill="white">
    SUKSESSFAKTORER: SYSTEMATISK TILNÆRMING + RIKTIG TEKNOLOGI + KOMPETENT PERSONALE
  </text>
</svg>
